X:438
T: HAB OFT IM KREISE DER LIEBEN
N: F0814
O: Europa, Mitteleuropa, Deutschland
R: Geselligkeits -, Moral - Lied
M: 4/4
L: 1/16
K: Bb
F4 | d4d4e4d2d2 | c6d2c4
d2c2 | B4B2B2c2B2A2B2 | c8z4
c4 | c4c4d4d2d2 | f8e4
d2c2 | B4B2B2A2B2c2d2 | B8z4
B4 | B4B4e4d2d2 | c6d2c4
d4 | e4e2d2c4c3d | c8z4
c4 | f8=e4z4 | e8d4z2
d2 | f2e2d2c2B4A4 | B8z4

@@@ Tune index: 5869
